X: 75
T: SLIDES: Dan Jeremiah's Set
T: Nellie Mahony's / If I Had a Wife / Mad Dancing
C: C: Trad.; S: Denis Murphy / Emma O'Leary
C: Set Leaders: Anton, Sophie
Z: Anton Zille ed. arr., Oleg Naumov arr.; Dr. Dow / Aidan Crossey / Smiley at The Session
N: https://thesession.org/members/26966/sets/94458
R: Slide
M: 12/8
L: 1/8
Q: 3/8=130
K: Gmaj
|:"G"B2A ABd e2d "G/B"d2B|"C"AGA "(G/B)"B2A "(Am)"G2D "D"D2A|
"Em"B2A ABd "C"e2d d2B|1 AGA "D"B2A "G"G3 "(D)"G2A:|2 AGA "D"B2A "G"G3 G2B||
|:"G (Em)"d2g gfg age "G/B"dBd|"C"e2a aba g2a "D"bge|
"G"d2g gfg "Em"age dBd|1 "C"efg "D"aba "G"g3 gfe:|2 "C"efg "D"aba "G"g3 g3||
T: Dan Jeremiah's No. 1 / Dan Jeremiah O'Connor's No. 1
K: Dmaj
|:"D"F2A dBA B2A F2A|"G"B2E EDE "A"F2E D2E|
"D"F2A dBA "(G)"B2A F2A|1 "G"~B3 "A"cBc "D"d3 d2A:|2 "G"~B3 "A"cBc "D"d3 d2B||
|:"D (Bm)"A2d dcd B2A F2A|"G"B3 BAB "A"c2A F2G|
"D (Bm)"A2d dcd B2A F2A|1 "G"B2e "A"e2c "D"d3 dcB:|2 "G"Bcd "A"edc "D"d3 d2A||
T: Dan Jeremiah's No. 2 / Dan Jeremiah O'Connor's No. 2
K: Edor
|:"Em"B2e e2f e2d "(A)"B2A|"D"~B2d dBA "(Bm)"~B2d dBA|
"Em"B2e e2f e2d "(A)"B2A|1 "D"def a2f "Bm"e3 e2d:|2 "D"def a2f "Bm"e2e efa||
|:"Am"b3 bba b2a f2e|"D"d2f afe "Bm"def afa|
"Am (C)"bbb b2a b2a "(Am)"f2e|1 "D"def a2f "Bm"e2e efa:|2 "Am"def a2f "C"g2f "D"e2d||

